svg/furkot/freepik/danger.svg

<svg viewBox="0 0 512 512" xmlns="http://www.w3.org/2000/svg"><path d="m457.129 343.865-23.196-51.533-177.893 80.079-177.892-80.079-23.198 51.533 132.253 59.533-126.953 57.15 23.196 51.531 172.594-77.693 172.593 77.693 23.198-51.531-126.954-57.15z"/><path d="m186.076 243.309v76.02h139.928v-76.02h106.116c0-106.454 13.512-243.309-176.08-243.309-189.591 0-176.081 136.855-176.081 243.309zm109.572-115.416 5.59-6.431c13.064-15.036 35.845-16.635 50.88-3.57 15.034 13.065 16.633 35.846 3.568 50.882l-5.589 6.431c-13.064 15.037-35.846 16.634-50.881 3.57s-16.635-35.846-3.568-50.882zm-135.686-10.001c15.035-13.065 37.816-11.466 50.881 3.57l5.59 6.431c13.064 15.036 11.466 37.818-3.569 50.882s-37.816 11.467-50.88-3.57l-5.591-6.431c-13.065-15.036-11.466-37.817 3.569-50.882z"/></svg>

<svg xmlns="http://www.w3.org/2000/svg" viewBox="0 0 512 512"><path d="M457.129 343.865L433.933 292.332 256.04 372.411 78.148 292.332 54.95 343.865 187.203 403.398 60.25 460.548 83.446 512.079 256.04 434.386 428.633 512.079 451.831 460.548 324.877 403.398Z"/><path d="M186.076 243.309V319.329H326.004V243.309H432.12C432.12 136.855 445.632 0 256.04 0 66.449 0 79.959 136.855 79.959 243.309H186.076ZM295.648 127.893L301.238 121.462C314.302 106.426 337.083 104.827 352.118 117.892 367.152 130.957 368.751 153.738 355.686 168.774L350.097 175.205C337.033 190.242 314.251 191.839 299.216 178.775 284.181 165.711 282.581 142.929 295.648 127.893ZM159.962 117.892C174.997 104.827 197.778 106.426 210.843 121.462L216.433 127.893C229.497 142.929 227.899 165.711 212.864 178.775 197.829 191.839 175.048 190.242 161.984 175.205L156.393 168.774C143.328 153.738 144.927 130.957 159.962 117.892Z"/></svg>
